X: 4348
T: Bok Espok
R: waltz
M: 3/4
K: Eminor
A/B/d|:ed/B/ GA A/B/d|ed/B/ e2 A/B/d|
ed/B/ GA A/B/A|1 G/E/D E2 A/B/d:|2 G/E/D E2 A/B/A||
M:2/4
|:GE A/B/A|Bd A/B/A|GE A/B/A|
M:3/4
[1 G/E/D E2 A/B/A:|2 G/E/D E4||

